X: 10379
T: Donald Angus Beaton
R: strathspey
M: 4/4
K: Amixolydian
F|"A"E<A{AB}A>c "E"{Bc}B>AB<c|"A"A/A/A A>g "D"{fg}f>ef<b|"A"e<cA>c "E"{Bc}B>AB<c|"D"A<G{FG}F>E "A"F<A{AB}A:|
|:d|"A"c<e{ef}e>c "E"{Bc}B>AA<d|"A"c<e{ef}e>c "Em"e>f{gf}g>b|"D"{ab}a>fe>c "E"{Bc}B>AB<c|"D"A<G{FG}F>E "A"F<A{AB}A:|

